svg/24/margin-y.svg

<svg width="24" height="24" viewBox="0 0 24 24" fill="currentColor" xmlns="http://www.w3.org/2000/svg"><path fill-rule="evenodd" clip-rule="evenodd" d="M3 19C3 20.1046 3.89543 21 5 21L19 21C20.1046 21 21 20.1046 21 19L21 5C21 3.89543 20.1046 3 19 3L5 3C3.89543 3 3 3.89543 3 5L3 19ZM4.5 8L4.5 16L19.5 16L19.5 8L4.5 8ZM4.5 6.5L19.5 6.5L19.5 5C19.5 4.72386 19.2761 4.5 19 4.5L5 4.5C4.72386 4.5 4.5 4.72386 4.5 5L4.5 6.5ZM4.5 19L4.5 17.5L19.5 17.5L19.5 19C19.5 19.2761 19.2761 19.5 19 19.5L5 19.5C4.72386 19.5 4.5 19.2761 4.5 19Z"/></svg>

<svg xmlns="http://www.w3.org/2000/svg" width="24" height="24" fill="currentColor" viewBox="0 0 24 24">
  <path fill-rule="evenodd" d="M3 19a2 2 0 0 0 2 2h14a2 2 0 0 0 2-2V5a2 2 0 0 0-2-2H5a2 2 0 0 0-2 2v14ZM4.5 8v8h15V8h-15Zm0-1.5h15V5a.5.5 0 0 0-.5-.5H5a.5.5 0 0 0-.5.5v1.5Zm0 12.5v-1.5h15V19a.5.5 0 0 1-.5.5H5a.5.5 0 0 1-.5-.5Z" clip-rule="evenodd"/>
</svg>
